dist/images/lamp.svg

<svg width="32" height="32" viewBox="0 0 32 32" fill="none" xmlns="http://www.w3.org/2000/svg">
<path d="M21.1489 2.5H32V0H0V2.5H10.7261C10.989 4.70508 12.6233 6.4939 14.75 6.98779V12.375H12.3081L11.0625 18.022L9.81689 12.375H2.43311L0.00659181 23.375H4.9375V24.3438C4.9375 27.7383 7.69922 30.5 11.0938 30.5C12.3801 30.5 13.5757 30.103 14.5645 29.4258C14.4048 29.6833 14.3125 29.9871 14.3125 30.3125C14.3125 31.2444 15.0681 32 16 32C16.9319 32 17.6875 31.2444 17.6875 30.3125C17.6875 29.9871 17.5952 29.6833 17.4355 29.4258C18.4243 30.103 19.6199 30.5 20.9062 30.5C24.3008 30.5 27.0625 27.7383 27.0625 24.3438V23.375H31.9934L29.5669 12.375H22.1831L20.9375 18.022L19.6919 12.375H17.25V6.95898C19.3159 6.42529 20.8914 4.66187 21.1489 2.5ZM4.44189 14.875H7.80811L9.13159 20.875H3.11841L4.44189 14.875ZM11.0938 28C9.07764 28 7.4375 26.3599 7.4375 24.3438V23.375H14.75V24.3438C14.75 26.3599 13.1099 28 11.0938 28ZM24.1919 14.875H27.5581L28.8816 20.875H22.8682L24.1919 14.875ZM24.5625 23.375V24.3438C24.5625 26.3599 22.9224 28 20.9062 28C18.8901 28 17.25 26.3599 17.25 24.3438V23.375H24.5625ZM19.0066 20.875H12.9932L14.3169 14.875H17.6831L19.0066 20.875ZM13.26 2.5H18.615C18.3311 3.71606 17.2388 4.625 15.9375 4.625C14.6362 4.625 13.5439 3.71606 13.26 2.5Z" fill="#0094FF"/>
</svg>

<svg width="32" height="32" fill="none" xmlns="http://www.w3.org/2000/svg"><path d="M21.149 2.5H32V0H0v2.5h10.726a5.261 5.261 0 004.024 4.488v5.387h-2.442l-1.245 5.647-1.246-5.647H2.433l-2.426 11h4.93v.969a6.163 6.163 0 006.157 6.156 6.123 6.123 0 003.47-1.074 1.688 1.688 0 102.871 0 6.123 6.123 0 003.471 1.074 6.163 6.163 0 006.157-6.156v-.969h4.93l-2.426-11h-7.384l-1.245 5.647-1.246-5.647H17.25V6.959A5.263 5.263 0 0021.149 2.5zM4.442 14.875h3.366l1.324 6H3.118l1.324-6zM11.094 28a3.66 3.66 0 01-3.656-3.656v-.969h7.312v.969A3.66 3.66 0 0111.094 28zm13.098-13.125h3.366l1.324 6h-6.014l1.324-6zm.37 8.5v.969A3.66 3.66 0 0120.907 28a3.66 3.66 0 01-3.656-3.656v-.969h7.313zm-5.555-2.5h-6.014l1.324-6h3.366l1.324 6zM13.26 2.5h5.355a2.754 2.754 0 01-2.677 2.125A2.754 2.754 0 0113.26 2.5z" fill="#0094FF"/></svg>
